swiss/communes/5430.svg

<svg xmlns="http://www.w3.org/2000/svg" xmlns:xlink="http://www.w3.org/1999/xlink" height="763" width="603" version="1.0"><defs><radialGradient xlink:href="#a" id="b" gradientUnits="userSpaceOnUse" gradientTransform="matrix(1.21503 0 0 1.26667 -839.192 -490.49)" cx="858.042" cy="579.933" fx="858.042" fy="579.933" r="300"/><linearGradient id="a"><stop style="stop-color:#fff;stop-opacity:.3137255" offset="0"/><stop offset=".19" style="stop-color:#fff;stop-opacity:.25098041"/><stop style="stop-color:#6b6b6b;stop-opacity:.1254902" offset=".6"/><stop style="stop-color:#000;stop-opacity:.1254902" offset="1"/></linearGradient></defs><g style="opacity:1;display:inline"><path d="M1.5 1.5v458.869C1.5 626.68 135.814 761.5 301.5 761.5c165.687 0 300-134.82 300-301.131V1.5H1.5z" style="opacity:1;fill:#fff;display:inline"/></g><g style="opacity:1;display:inline"><path d="M601.496 126.832V1.5h-120L4.769 504.9c9.451 63.99 38.959 121.408 81.9 165.629l514.827-543.697z" style="fill:#5ab532"/><path d="M481.496 1.5 4.769 504.9M86.669 670.529l514.827-543.697" style="fill:none;stroke:#000;stroke-width:3"/><path transform="translate(5.961 -.045)" style="fill:#fcef3c" d="m478.638 220.945-26.25-1.5 20.5-13.5-19.31 4.065.81-8.565-5.296 8v2.581l-.09 2.132-.864 20.537 27.25-3-25-4 28.25-6.75zM473.388 189.445h-26l22.25-12.75-25.25 6.75 11.25-22.25-16 16v-19l-5.5 17.75 4.203 4.203 6.797 18.047 23.25 3.5-21-8 26-4.25zM417.464 153.859l4.674-7.414-10.689 7.277 14.189-23.027-20.406 15.999 1.406-14.249-4.688 9.915-5.562-18.415-1.75 23.75 19.25 13 4.25-1.5 21.25-10.25-21.924 4.914zM403.388 255.695l-3 19.5 8.334-15.416 8.416 20.666-.75-22 17.5 15-12-19.5 21.25 2.75-20.5-9.5 21.5-3.25-23.25-3.5-17.5 15.25z"/><path d="M328.126 259.359s26.674-24.357 36.973-45.834c9.75-20.333 26-38.125 27.75-42.125s-7.25-7-7.25-19 14.75-11.25 24.75-4.75 18.932 15.604 5.5 22c-5.25 2.5-8.696.197-15 6.5-21 21-34.25 64.917-64.697 88.441M455.682 216.566c-2.916-8.833-13.332-14.917-19.916-9.417s-7.334 12.5-10.084 12.5c-1.881 0-14.252-2.92-31.269 1.152-5.762 4.303-12.396 9.466-20.064 15.662 10.449-8.308 29.984-14.321 52.417-11.064 2.583.375 5.334 11.417 17.75 11.417s14.082-11.417 11.166-20.25z" style="fill:#fcef3c;stroke:#000;stroke-width:3" transform="translate(6)"/><path d="M414.35 234.316c-9.416 0-10.595 5.427-13.751 5.25-18.176-1.021-31.5 1.167-31.5 1.167-6.875 4.792-24.02 18.688-30.666 25.333 23.75-23.75 55.25-17.833 58.667-16.583 3.417 1.25 2.5 7.417 9 12.833s18.25-3.5 19.75-12.5-2.084-15.5-11.5-15.5z" style="fill:#fcef3c;stroke:#000;stroke-width:3" transform="translate(6)"/><path d="M128.766 486.4c10 10 21.333 20 21.333 20 4.115-15.087 9.736-34.06 16.504-54.467-27.906 19.271-37.837 34.467-37.837 34.467zm303.333-312.375c-8.75-.875-11.5 6.625-13 10.125s1.5 8.75-6.5 13.5c-23.743 14.098-50.25 35.25-50.25 35.25-4.205 3.541-9.37 7.952-16.852 14.522.47-.593.945-1.204 1.426-1.846 16.574-19.324 19.301-47.426 19.301-50.926 0-7.5 12.125-13.75 5.875-22.625-7.745-10.999-25.375-6.25-26.75 5.375s8.375 13.875 11.875 18.625-6.495 35.285-14.393 45.46c-3.786 5.294-6.93 8.767-10.324 11.812-26.908 0-72.606 18.905-105.908 65.604-23.152 32.465-44.56 86.486-59.996 133.033a270.827 270.827 0 0 1 13.996-9.033c38.667-23.333 83.52-53.474 133.018-113.074 16.333-19.667 23.316-34.927 33.482-45.093 17 10.333 5.333 32.333 5.333 32.333 8-2 30-11.334 30-28.667 0-5.842-2.537-11.733-6.957-16.978-4.679-5.551-13.96-9.606-25.043-9.11-.626-1.225-1.864-2.611-3.531-3.925 7.721-6.626 17.429-14.331 22.198-17.654 58.833-48.167 61.875-40.583 68.25-39.958s12.25-1.25 13.25-8.75-9.75-17.125-18.5-18z" style="fill:#fcef3c;stroke:#000;stroke-width:3" transform="translate(6)"/><path d="M347.099 284.733c4.797-4.796 9.378-9.224 15.183-11.88 5.188-2.374 13.067-2.704 16.479 3.167M332.507 253.296c-5.813 5.813-19.81 15.724-38.952 31.961-13.396 11.362-29.312 30.489-46.706 48.81" style="fill:none;stroke:#000;stroke-width:3;stroke-linecap:round" transform="translate(6)"/><path d="M346.9 258.388c-7.802 6.262-34.89 27.433-45.89 35.501" style="fill:none;stroke:#000;stroke-width:3" transform="translate(6)"/><path d="M350.432 262.312s-10.752-.327-49.423 31.578c-12.737 10.508-28.502 29.18-47.91 47.844M345.497 247.422h0" style="fill:none;stroke:#000;stroke-width:3;stroke-linecap:round" transform="translate(6)"/></g><g style="display:inline"><path style="fill:url(#b);fill-opacity:1" d="M1.5 1.5v458.868c0 166.31 134.315 301.132 300 301.132s300-134.821 300-301.132V1.5H1.5z"/></g><g style="display:inline"><path style="fill:none;fill-opacity:1;stroke:#000;stroke-width:3;stroke-miterlimit:4;stroke-dasharray:none;stroke-opacity:1" d="M1.5 1.5v458.868c0 166.31 134.315 301.132 300 301.132s300-134.821 300-301.132V1.5H1.5z"/></g></svg>

<?xml version="1.0" encoding="UTF-8" standalone="no"?>
<svg
   xmlns:dc="http://purl.org/dc/elements/1.1/"
   xmlns:cc="http://creativecommons.org/ns#"
   xmlns:rdf="http://www.w3.org/1999/02/22-rdf-syntax-ns#"
   xmlns:svg="http://www.w3.org/2000/svg"
   xmlns="http://www.w3.org/2000/svg"
   xmlns:xlink="http://www.w3.org/1999/xlink"
   xmlns:sodipodi="http://sodipodi.sourceforge.net/DTD/sodipodi-0.dtd"
   xmlns:inkscape="http://www.inkscape.org/namespaces/inkscape"
   height="763"
   width="603"
   version="1.0"
   id="svg20"
   sodipodi:version="0.32"
   inkscape:version="0.46"
   sodipodi:docname="Marchissy-coat_of_arms.svg"
   sodipodi:docbase="C:\Documents and Settings\Steve\Bureau\Blason Villages Suisse pour Wikipédia (par Delta-9)"
   inkscape:output_extension="org.inkscape.output.svg.inkscape">
  <metadata
     id="metadata31">
    <rdf:RDF>
      <cc:Work
         rdf:about="">
        <dc:format>image/svg+xml</dc:format>
        <dc:type
           rdf:resource="http://purl.org/dc/dcmitype/StillImage" />
        <dc:date>07-AUG-2006</dc:date>
        <dc:creator>
          <cc:Agent>
            <dc:title>Jérôme BLUM (wagner51)</dc:title>
          </cc:Agent>
        </dc:creator>
        <cc:license
           rdf:resource="http://creativecommons.org/licenses/GPL/2.0/" />
        <dc:coverage />
        <dc:description>Gabarit pour le Projet:Blasons de WIkipédia</dc:description>
        <dc:subject>
          <rdf:Bag>
            <rdf:li>blason suisse modèle gabarit projet blasons</rdf:li>
          </rdf:Bag>
        </dc:subject>
        <dc:language>fr</dc:language>
        <dc:title>Gabrit d'un blason suisse</dc:title>
      </cc:Work>
      <cc:License
         rdf:about="http://creativecommons.org/licenses/GPL/2.0/">
        <cc:permits
           rdf:resource="http://web.resource.org/cc/Reproduction" />
        <cc:permits
           rdf:resource="http://web.resource.org/cc/Distribution" />
        <cc:requires
           rdf:resource="http://web.resource.org/cc/Notice" />
        <cc:permits
           rdf:resource="http://web.resource.org/cc/DerivativeWorks" />
        <cc:requires
           rdf:resource="http://web.resource.org/cc/ShareAlike" />
        <cc:requires
           rdf:resource="http://web.resource.org/cc/SourceCode" />
      </cc:License>
    </rdf:RDF>
  </metadata>
  <defs
     id="defs29"><inkscape:perspective
   sodipodi:type="inkscape:persp3d"
   inkscape:vp_x="0 : 381.5 : 1"
   inkscape:vp_y="0 : 1000 : 0"
   inkscape:vp_z="603 : 381.5 : 1"
   inkscape:persp3d-origin="301.5 : 254.33333 : 1"
   id="perspective28" />
<linearGradient
   id="linearGradient2893">
  <stop
     style="stop-color:#ffffff;stop-opacity:0.3137255;"
     offset="0"
     id="stop2895" />
  <stop
     id="stop2897"
     offset="0.19"
     style="stop-color:#ffffff;stop-opacity:0.25098041;" />
  <stop
     style="stop-color:#6b6b6b;stop-opacity:0.1254902;"
     offset="0.60000002"
     id="stop2901" />
  <stop
     style="stop-color:#000000;stop-opacity:0.1254902;"
     offset="1"
     id="stop2899" />
</linearGradient>
<linearGradient
   id="linearGradient2955">
  <stop
     style="stop-color:white;stop-opacity:0;"
     offset="0"
     id="stop2965" />
  <stop
     style="stop-color:black;stop-opacity:0.64583331;"
     offset="1"
     id="stop2959" />
</linearGradient>
<radialGradient
   inkscape:collect="always"
   xlink:href="#linearGradient2893"
   id="radialGradient3236"
   gradientUnits="userSpaceOnUse"
   gradientTransform="matrix(1.215027,1.531577e-24,1.464684e-23,1.266667,-839.1924,-490.4894)"
   cx="858.04236"
   cy="579.93323"
   fx="858.04236"
   fy="579.93323"
   r="300" />
<inkscape:perspective
   id="perspective2628"
   inkscape:persp3d-origin="297.63751 : 280.63 : 1"
   inkscape:vp_z="595.27502 : 420.94501 : 1"
   inkscape:vp_y="0 : 1000 : 0"
   inkscape:vp_x="0 : 420.94501 : 1"
   sodipodi:type="inkscape:persp3d" />

	
	
	

	
	
	

	

		
		
		
		
		
			
	
		
		
		
		
	
		
		
		
		
	</defs>
  <sodipodi:namedview
     inkscape:window-height="905"
     inkscape:window-width="1236"
     inkscape:pageshadow="2"
     inkscape:pageopacity="0.0"
     guidetolerance="10.0"
     gridtolerance="10.0"
     objecttolerance="10.0"
     borderopacity="1.0"
     bordercolor="#666666"
     pagecolor="#ffffff"
     id="base"
     inkscape:zoom="0.82116506"
     inkscape:cx="312.26014"
     inkscape:cy="380.63827"
     inkscape:window-x="13"
     inkscape:window-y="38"
     inkscape:current-layer="layer2"
     showgrid="false"
     showguides="true"
     inkscape:guide-bbox="true">
    <sodipodi:guide
       orientation="horizontal"
       position="761.5"
       id="guide1885" />
    <sodipodi:guide
       orientation="vertical"
       position="1.5"
       id="guide1887" />
    <sodipodi:guide
       orientation="horizontal"
       position="1.5"
       id="guide1889" />
    <sodipodi:guide
       orientation="vertical"
       position="601.5"
       id="guide1891" />
    <sodipodi:guide
       orientation="vertical"
       position="301.50081"
       id="guide1893" />
  </sodipodi:namedview>
  <desc
     id="desc22">Coat of Arms of Canton of Freiburg (Fribourg)</desc>
  <g
     inkscape:groupmode="layer"
     id="layer1"
     inkscape:label="Fond écu"
     style="opacity:1;display:inline"
     sodipodi:insensitive="true">
    <path
       d="M 1.5,1.5 L 1.5,460.369 C 1.5,626.68 135.814,761.5 301.5,761.5 C 467.187,761.5 601.5,626.68 601.5,460.369 L 601.5,1.5 L 1.5,1.5 z"
       id="path2507"
       style="opacity:1;fill:#ffffff;display:inline" />
  </g>
  <g
     inkscape:groupmode="layer"
     id="layer2"
     inkscape:label="Meubles"
     style="opacity:1;display:inline"
     sodipodi:insensitive="true">
    <path
       d="M 601.496,126.832 L 601.496,1.5 L 481.496,1.5 L 4.7690001,504.9 C 14.22,568.89 43.728,626.308 86.669,670.529 L 601.496,126.832 L 601.496,126.832 z"
       id="path2489"
       style="fill:#5ab532" />
    <path
       d="M 481.496,1.5 L 4.7690001,504.9"
       id="path2491"
       style="fill:none;stroke:#000000;stroke-width:3" />
    <path
       d="M 86.669,670.529 L 601.496,126.832"
       id="path2493"
       style="fill:none;stroke:#000000;stroke-width:3" />
    <g
       id="g2714"
       transform="translate(6,0)">
      <polygon
         transform="translate(-3.9e-2,-4.5e-2)"
         id="polygon2593"
         points="478.638,220.945 452.388,219.445 472.888,205.945 453.578,210.01 454.388,201.445 449.092,209.445 449.092,212.026 449.092,212.026 449.002,214.158 448.138,234.695 475.388,231.695 450.388,227.695 478.638,220.945 "
         style="fill:#fcef3c" />
      <polygon
         transform="translate(-3.9e-2,-4.5e-2)"
         id="polygon2595"
         points="473.388,189.445 447.388,189.445 469.638,176.695 444.388,183.445 455.638,161.195 439.638,177.195 439.638,158.195 434.138,175.945 438.341,180.148 445.138,198.195 468.388,201.695 447.388,193.695 473.388,189.445 "
         style="fill:#fcef3c" />
      <polygon
         transform="translate(-3.9e-2,-4.5e-2)"
         id="polygon2597"
         points="417.464,153.859 422.138,146.445 411.449,153.722 425.638,130.695 405.232,146.694 406.638,132.445 401.95,142.36 396.388,123.945 394.638,147.695 413.888,160.695 418.138,159.195 439.388,148.945 417.464,153.859 "
         style="fill:#fcef3c" />
      <polygon
         transform="translate(-3.9e-2,-4.5e-2)"
         id="polygon2599"
         points="403.388,255.695 400.388,275.195 408.722,259.779 417.138,280.445 416.388,258.445 433.888,273.445 421.888,253.945 443.138,256.695 422.638,247.195 444.138,243.945 420.888,240.445 403.388,255.695 "
         style="fill:#fcef3c" />
      <path
         id="path2603"
         d="M 328.126,259.359 C 328.126,259.359 354.8,235.002 365.099,213.525 C 374.849,193.192 391.099,175.4 392.849,171.4 C 394.599,167.4 385.599,164.4 385.599,152.4 C 385.599,140.4 400.349,141.15 410.349,147.65 C 420.349,154.15 429.281,163.254 415.849,169.65 C 410.599,172.15 407.153,169.847 400.849,176.15 C 379.849,197.15 366.599,241.067 336.152,264.591"
         style="fill:#fcef3c;stroke:#000000;stroke-width:3" />
      <path
         id="path2605"
         d="M 455.682,216.566 C 452.766,207.733 442.35,201.649 435.766,207.149 C 429.182,212.649 428.432,219.649 425.682,219.649 C 423.801,219.649 411.43,216.729 394.413,220.801 C 388.651,225.104 382.017,230.267 374.349,236.463 L 374.349,236.463 C 384.798,228.155 404.333,222.142 426.766,225.399 C 429.349,225.774 432.1,236.816 444.516,236.816 C 456.932,236.816 458.598,225.399 455.682,216.566 z"
         style="fill:#fcef3c;stroke:#000000;stroke-width:3" />
      <path
         id="path2607"
         d="M 414.35,234.316 C 404.934,234.316 403.755,239.743 400.599,239.566 C 382.423,238.545 369.099,240.733 369.099,240.733 C 362.224,245.525 345.079,259.421 338.433,266.066 C 362.183,242.316 393.683,248.233 397.1,249.483 C 400.517,250.733 399.6,256.9 406.1,262.316 C 412.6,267.732 424.35,258.816 425.85,249.816 C 427.35,240.816 423.766,234.316 414.35,234.316 z"
         style="fill:#fcef3c;stroke:#000000;stroke-width:3" />
      <path
         id="path2609"
         d="M 128.766,486.4 C 138.766,496.4 150.099,506.4 150.099,506.4 C 154.214,491.313 159.835,472.34 166.603,451.933 C 138.697,471.204 128.766,486.4 128.766,486.4 z M 432.099,174.025 C 423.349,173.15 420.599,180.65 419.099,184.15 C 417.599,187.65 420.599,192.9 412.599,197.65 C 388.856,211.748 362.349,232.9 362.349,232.9 C 358.144,236.441 352.979,240.852 345.497,247.422 C 345.967,246.829 346.442,246.218 346.923,245.576 C 363.497,226.252 366.224,198.15 366.224,194.65 C 366.224,187.15 378.349,180.9 372.099,172.025 C 364.354,161.026 346.724,165.775 345.349,177.4 C 343.974,189.025 353.724,191.275 357.224,196.025 C 360.724,200.775 350.729,231.31 342.831,241.485 C 339.045,246.779 335.901,250.252 332.507,253.297 C 305.599,253.297 259.901,272.202 226.599,318.901 C 203.447,351.366 182.039,405.387 166.603,451.934 C 170.847,449.003 175.495,445.981 180.599,442.901 C 219.266,419.568 264.119,389.427 313.617,329.827 C 329.95,310.16 336.933,294.9 347.099,284.734 C 364.099,295.067 352.432,317.067 352.432,317.067 C 360.432,315.067 382.432,305.733 382.432,288.4 C 382.432,282.558 379.895,276.667 375.475,271.422 C 370.796,265.871 361.515,261.816 350.432,262.312 C 349.806,261.087 348.568,259.701 346.901,258.387 C 354.622,251.761 364.33,244.056 369.099,240.733 C 427.932,192.566 430.974,200.15 437.349,200.775 C 443.724,201.4 449.599,199.525 450.599,192.025 C 451.599,184.525 440.849,174.9 432.099,174.025 z"
         style="fill:#fcef3c;stroke:#000000;stroke-width:3" />
      <path
         id="path2613"
         d="M 347.099,284.733 C 351.896,279.937 356.477,275.509 362.282,272.853 C 367.47,270.479 375.349,270.149 378.761,276.02"
         style="fill:none;stroke:#000000;stroke-width:3;stroke-linecap:round" />
      <path
         id="path2615"
         d="M 332.507,253.296 C 326.694,259.109 312.697,269.02 293.555,285.257 C 280.159,296.619 264.243,315.746 246.849,334.067"
         style="fill:none;stroke:#000000;stroke-width:3;stroke-linecap:round" />
      <path
         id="path2617"
         d="M 346.9,258.388 C 339.098,264.65 312.01,285.821 301.01,293.889"
         style="fill:none;stroke:#000000;stroke-width:3" />
      <path
         id="path2619"
         d="M 350.432,262.312 C 350.432,262.312 339.68,261.985 301.009,293.89 C 288.272,304.398 272.507,323.07 253.099,341.734"
         style="fill:none;stroke:#000000;stroke-width:3;stroke-linecap:round" />
      <line
         id="line2621"
         y2="247.422"
         x2="345.49701"
         y1="247.422"
         x1="345.49701"
         style="fill:none;stroke:#000000;stroke-width:3;stroke-linecap:round" />
    </g>
  </g>
  <g
     inkscape:groupmode="layer"
     id="layer3"
     inkscape:label="Reflet final"
     style="display:inline"
     sodipodi:insensitive="true">
    <path
       style="fill:url(#radialGradient3236);fill-opacity:1"
       d="M 1.5,1.5 L 1.5,460.3679 C 1.5,626.67854 135.81454,761.5 301.49993,761.5 C 467.1854,761.5 601.5,626.67854 601.5,460.3679 L 601.5,1.5 L 1.5,1.5 z "
       id="path2346" />
  </g>
  <g
     inkscape:groupmode="layer"
     id="layer4"
     inkscape:label="Contour final"
     style="display:inline"
     sodipodi:insensitive="true">
    <path
       style="fill:none;fill-opacity:1;stroke:#000000;stroke-width:3;stroke-miterlimit:4;stroke-dasharray:none;stroke-opacity:1"
       d="M 1.5,1.5 L 1.5,460.36794 C 1.5,626.67854 135.81454,761.5 301.49993,761.5 C 467.1854,761.5 601.5,626.67854 601.5,460.36794 L 601.5,1.5 L 1.5,1.5 z "
       id="path3239" />
  </g>
</svg>
